z_dist/img/icons/crypto/usd-coin-USDC.svg

<svg width="64" height="64" viewBox="0 0 64 64" fill="none" xmlns="http://www.w3.org/2000/svg">
<rect y="0.000488281" width="64" height="64" rx="4" fill="#2775CA"/>
<path d="M40.7999 37.0671C40.7999 32.4005 37.9999 30.8005 32.3999 30.134C28.3999 29.6005 27.5999 28.534 27.5999 26.6671C27.5999 24.8002 28.9333 23.6005 31.5999 23.6005C33.9999 23.6005 35.3334 24.4005 35.9999 26.4005C36.1334 26.8005 36.5333 27.0671 36.9334 27.0671H39.0665C39.5999 27.0671 39.9999 26.6671 39.9999 26.134V26.0005C39.4665 23.0671 37.0665 20.8005 33.9999 20.534V17.334C33.9999 16.8005 33.5999 16.4005 32.9334 16.2671H30.9333C30.3999 16.2671 29.9999 16.6671 29.8665 17.334V20.4005C25.8665 20.934 23.3333 23.6005 23.3333 26.934C23.3333 31.334 25.9999 33.0671 31.5999 33.734C35.3334 34.4005 36.5333 35.2005 36.5333 37.334C36.5333 39.4674 34.6665 40.934 32.1334 40.934C28.6665 40.934 27.4665 39.4671 27.0665 37.4671C26.9333 36.934 26.5333 36.6671 26.1333 36.6671H23.8665C23.3333 36.6671 22.9333 37.0671 22.9333 37.6005V37.734C23.4665 41.0671 25.5999 43.4671 29.9999 44.134V47.334C29.9999 47.8671 30.3999 48.2671 31.0665 48.4005H33.0665C33.5999 48.4005 33.9999 48.0005 34.1334 47.334V44.134C38.1334 43.4671 40.7999 40.6671 40.7999 37.0671Z" fill="white"/>
<path fill-rule="evenodd" clip-rule="evenodd" d="M13.3334 25.4671C9.46647 35.734 14.7999 47.334 25.1999 51.0671C25.5999 51.334 25.9999 51.8671 25.9999 52.2671V54.134C25.9999 54.4005 25.9999 54.534 25.8665 54.6671C25.7334 55.2006 25.1999 55.4671 24.6665 55.2005C17.1999 52.8005 11.4665 47.0671 9.06647 39.6005C5.06647 26.934 11.9999 13.4671 24.6665 9.4671C24.7999 9.33398 25.0665 9.33398 25.1999 9.33398C25.7334 9.4671 25.9999 9.8671 25.9999 10.4005V12.2671C25.9999 12.934 25.7334 13.334 25.1999 13.6005C19.7334 15.6005 15.3334 19.8671 13.3334 25.4671ZM38.1334 10.0006C38.2665 9.46718 38.7999 9.20062 39.3334 9.46718C46.6665 11.8672 52.5333 17.6006 54.9333 25.2006C58.9333 37.8672 51.9999 51.3341 39.3334 55.3341C39.1999 55.4672 38.9334 55.4672 38.7999 55.4672C38.2665 55.3341 37.9999 54.9341 37.9999 54.4006V52.5341C37.9999 51.8672 38.2665 51.4672 38.7999 51.2006C44.2665 49.2006 48.6665 44.9341 50.6665 39.3341C54.5333 29.0672 49.1999 17.4672 38.7999 13.7341C38.3999 13.4672 37.9999 12.9341 37.9999 12.4006V10.5341C37.9999 10.2672 37.9999 10.1341 38.1334 10.0006Z" fill="white"/>
</svg>

<svg width="64" height="64" fill="none" xmlns="http://www.w3.org/2000/svg"><rect width="64" height="64" rx="4" fill="#2775CA"/><path d="M40.8 37.067c0-4.666-2.8-6.267-8.4-6.933-4-.534-4.8-1.6-4.8-3.467s1.333-3.067 4-3.067c2.4 0 3.733.8 4.4 2.8.133.4.533.667.933.667h2.133c.534 0 .934-.4.934-.933V26a6.661 6.661 0 00-6-5.466v-3.2c0-.534-.4-.933-1.067-1.067h-2c-.533 0-.933.4-1.067 1.067v3.067c-4 .533-6.533 3.2-6.533 6.533 0 4.4 2.667 6.133 8.267 6.8 3.733.666 4.933 1.466 4.933 3.6 0 2.133-1.867 3.6-4.4 3.6-3.467 0-4.667-1.467-5.067-3.467-.133-.533-.533-.8-.933-.8h-2.267c-.533 0-.933.4-.933.933v.134c.534 3.333 2.667 5.733 7.067 6.4v3.2c0 .533.4.933 1.067 1.066h2c.533 0 .933-.4 1.066-1.066v-3.2c4-.667 6.667-3.467 6.667-7.067z" fill="#fff"/><path fill-rule="evenodd" clip-rule="evenodd" d="M13.333 25.467C9.466 35.734 14.8 47.334 25.2 51.067c.4.267.8.8.8 1.2v1.867c0 .267 0 .4-.134.533-.133.534-.666.8-1.2.533-7.466-2.4-13.2-8.133-15.6-15.6-4-12.666 2.934-26.133 15.6-30.133.134-.133.4-.133.534-.133.533.133.8.533.8 1.066v1.867c0 .667-.267 1.067-.8 1.334-5.467 2-9.867 6.266-11.867 11.866zm24.8-15.466c.133-.534.667-.8 1.2-.534 7.334 2.4 13.2 8.134 15.6 15.734 4 12.666-2.933 26.133-15.6 30.133-.133.133-.4.133-.533.133-.533-.133-.8-.533-.8-1.066v-1.867c0-.667.267-1.067.8-1.333 5.467-2 9.867-6.267 11.867-11.867 3.866-10.267-1.467-21.867-11.867-25.6-.4-.267-.8-.8-.8-1.333v-1.867c0-.267 0-.4.133-.533z" fill="#fff"/></svg>
